client/public/icons/moon.svg

<svg width="24" height="24" viewBox="0 0 24 24" fill="none" xmlns="http://www.w3.org/2000/svg">
<path d="M20.742 13.045C20.0643 13.225 19.3662 13.3161 18.665 13.316C16.53 13.316 14.525 12.486 13.019 10.98C12.0301 9.98536 11.3191 8.74887 10.9569 7.39381C10.5948 6.03874 10.5941 4.61242 10.955 3.25701C11.0001 3.08755 10.9998 2.90921 10.9542 2.73988C10.9086 2.57056 10.8192 2.41621 10.6951 2.29232C10.571 2.16842 10.4165 2.07934 10.2471 2.034C10.0777 1.98866 9.8994 1.98867 9.73 2.03401C8.03316 2.4862 6.48507 3.37664 5.241 4.61601C1.343 8.51401 1.343 14.859 5.241 18.759C6.16753 19.6907 7.26964 20.4294 8.48354 20.9323C9.69745 21.4353 10.999 21.6924 12.313 21.689C13.6266 21.6927 14.9279 21.4357 16.1415 20.9329C17.3551 20.4302 18.4569 19.6916 19.383 18.76C20.6233 17.5157 21.5142 15.9668 21.966 14.269C22.0109 14.0996 22.0105 13.9214 21.9649 13.7522C21.9193 13.583 21.8301 13.4287 21.7062 13.3048C21.5823 13.1809 21.428 13.0917 21.2588 13.0461C21.0896 13.0005 20.9114 13.0001 20.742 13.045V13.045ZM17.97 17.346C17.229 18.0911 16.3475 18.6818 15.3767 19.084C14.4058 19.4862 13.3649 19.6918 12.314 19.689C11.2628 19.6916 10.2215 19.4858 9.25033 19.0835C8.27916 18.6811 7.39739 18.0903 6.656 17.345C3.538 14.226 3.538 9.15001 6.656 6.03101C7.25851 5.42918 7.9541 4.92843 8.716 4.54801C8.60448 5.98707 8.80496 7.43325 9.30373 8.7877C9.8025 10.1422 10.5878 11.373 11.606 12.396C12.6268 13.4174 13.8573 14.2049 15.2123 14.704C16.5673 15.2032 18.0146 15.4021 19.454 15.287C19.0715 16.0476 18.5706 16.7426 17.97 17.346V17.346Z" fill="black"/>
</svg>

<svg xmlns='http://www.w3.org/2000/svg'  viewBox='0 0 24 24' fill='#000000' width='24' height='24'><path d="M20.742 13.045a8.088 8.088 0 0 1-2.077.271c-2.135 0-4.14-.83-5.646-2.336a8.025 8.025 0 0 1-2.064-7.723A1 1 0 0 0 9.73 2.034a10.014 10.014 0 0 0-4.489 2.582c-3.898 3.898-3.898 10.243 0 14.143a9.937 9.937 0 0 0 7.072 2.93 9.93 9.93 0 0 0 7.07-2.929 10.007 10.007 0 0 0 2.583-4.491 1.001 1.001 0 0 0-1.224-1.224zm-2.772 4.301a7.947 7.947 0 0 1-5.656 2.343 7.953 7.953 0 0 1-5.658-2.344c-3.118-3.119-3.118-8.195 0-11.314a7.923 7.923 0 0 1 2.06-1.483 10.027 10.027 0 0 0 2.89 7.848 9.972 9.972 0 0 0 7.848 2.891 8.036 8.036 0 0 1-1.484 2.059z"></path></svg>
